src/assets/icons/letters,simple,serif-b.svg

<svg width="48" height="48" viewBox="0 0 48 48" fill="none" xmlns="http://www.w3.org/2000/svg">
<rect opacity="0.2" x="5" y="5" width="38" height="38" rx="4" fill="black"/>
<path d="M13.0369 36V34.8C13.7169 34.78 14.2569 34.72 14.6569 34.62C15.0769 34.52 15.3969 34.35 15.6169 34.11C15.8569 33.87 16.0169 33.53 16.0969 33.09C16.1769 32.65 16.2169 32.08 16.2169 31.38V17.52C16.2169 16.82 16.1869 16.26 16.1269 15.84C16.0669 15.4 15.9369 15.06 15.7369 14.82C15.5569 14.56 15.2969 14.39 14.9569 14.31C14.6369 14.21 14.2069 14.14 13.6669 14.1V12.9H23.2969C26.3169 12.9 28.6369 13.39 30.2569 14.37C31.8969 15.33 32.7169 16.71 32.7169 18.51C32.7169 20.89 31.0069 22.57 27.5869 23.55V23.67C28.6869 23.67 29.6769 23.83 30.5569 24.15C31.4569 24.45 32.2169 24.88 32.8369 25.44C33.4569 26 33.9369 26.66 34.2769 27.42C34.6169 28.18 34.7869 29.01 34.7869 29.91C34.7869 30.93 34.5369 31.82 34.0369 32.58C33.5569 33.34 32.8569 33.98 31.9369 34.5C30.1569 35.5 27.7069 36 24.5869 36H13.0369ZM24.7969 34.17C28.0169 34.17 29.6269 32.72 29.6269 29.82C29.6269 28.04 29.0469 26.74 27.8869 25.92C27.2869 25.5 26.5069 25.2 25.5469 25.02C24.6069 24.84 23.4469 24.75 22.0669 24.75H20.6269V30.75C20.6269 31.99 20.9469 32.87 21.5869 33.39C22.2269 33.91 23.2969 34.17 24.7969 34.17ZM22.3969 22.95C23.2969 22.95 24.0769 22.87 24.7369 22.71C25.3969 22.53 25.9569 22.28 26.4169 21.96C27.3769 21.3 27.8569 20.27 27.8569 18.87C27.8569 17.41 27.4969 16.36 26.7769 15.72C26.0569 15.06 24.8969 14.73 23.2969 14.73H21.1669C20.8069 14.73 20.6269 14.9 20.6269 15.24V22.95H22.3969Z" fill="black"/>
</svg>

<svg xmlns="http://www.w3.org/2000/svg" width="48" height="48" fill="none" viewBox="0 0 48 48">
  <rect width="38" height="38" x="5" y="5" fill="#000" opacity=".2" rx="4"/>
  <path fill="#000" d="M13.037 36v-1.2c.68-.02 1.22-.08 1.62-.18.42-.1.74-.27.96-.51.24-.24.4-.58.48-1.02.08-.44.12-1.01.12-1.71V17.52c0-.7-.03-1.26-.09-1.68-.06-.44-.19-.78-.39-1.02-.18-.26-.44-.43-.78-.51-.32-.1-.75-.17-1.29-.21v-1.2h9.63c3.02 0 5.34.49 6.96 1.47 1.64.96 2.46 2.34 2.46 4.14 0 2.38-1.71 4.06-5.13 5.04v.12c1.1 0 2.09.16 2.97.48.9.3 1.66.73 2.28 1.29.62.56 1.1 1.22 1.44 1.98.34.76.51 1.59.51 2.49 0 1.02-.25 1.91-.75 2.67-.48.76-1.18 1.4-2.1 1.92-1.78 1-4.23 1.5-7.35 1.5h-11.55zm11.76-1.83c3.22 0 4.83-1.45 4.83-4.35 0-1.78-.58-3.08-1.74-3.9-.6-.42-1.38-.72-2.34-.9-.94-.18-2.1-.27-3.48-.27h-1.44v6c0 1.24.32 2.12.96 2.64.64.52 1.71.78 3.21.78zm-2.4-11.22c.9 0 1.68-.08 2.34-.24.66-.18 1.22-.43 1.68-.75.96-.66 1.44-1.69 1.44-3.09 0-1.46-.36-2.51-1.08-3.15-.72-.66-1.88-.99-3.48-.99h-2.13c-.36 0-.54.17-.54.51v7.71h1.77z"/>
</svg>
